docs/images/logo.svg

<svg width="194" height="48" viewBox="0 0 194 48" fill="none" xmlns="http://www.w3.org/2000/svg">
<path d="M118.019 16.5415L112.797 18.6962C112.829 18.7625 112.895 18.8288 112.927 18.8951C113.776 20.1548 114.265 21.6796 114.265 23.3039C114.265 24.3979 114.037 25.4255 113.645 26.3868C113.058 27.8122 112.079 29.0056 110.839 29.8675C109.598 30.7294 108.097 31.2266 106.498 31.2266C105.421 31.2266 104.409 30.9945 103.462 30.5968C102.059 30.0001 100.884 29.0056 100.035 27.7459C99.8395 27.4144 99.6437 27.0829 99.4805 26.7514C99.0562 28.4089 98.3708 29.9669 97.4569 31.3592C97.1958 31.7238 96.9347 32.0885 96.641 32.4531C97.359 33.2487 98.1423 33.9448 99.0236 34.5747C101.145 36.0332 103.723 36.8951 106.465 36.8951C108.293 36.8951 110.055 36.5305 111.654 35.8343C114.037 34.8067 116.093 33.0829 117.529 30.9282C118.965 28.7736 119.814 26.1548 119.814 23.3702C119.814 21.5139 119.455 19.7238 118.77 18.0995C118.541 17.5028 118.313 17.0056 118.019 16.5415Z" fill="#468AF9"/>
<path d="M92.2023 27.0496C91.6148 28.1767 90.7336 29.138 89.7218 29.8342C88.4815 30.696 86.9802 31.1933 85.3809 31.1933C84.565 31.1933 83.7817 31.0607 83.031 30.8286L76.6013 33.4806C77.0256 33.8452 77.4499 34.2099 77.9068 34.5082C80.0283 35.9668 82.6067 36.8286 85.3483 36.8286C87.176 36.8286 88.9385 36.464 90.5377 35.7679C92.9203 34.7403 94.9765 33.0165 96.4126 30.8618C97.6528 29.0054 98.4688 26.7844 98.632 24.3977L92.2023 27.0496Z" fill="white"/>
<path d="M94.4869 15.3149C94.7154 14.9503 94.9765 14.6188 95.2702 14.2541C94.5522 13.4254 93.7036 12.6961 92.8224 12.0663C90.7009 10.6077 88.1225 9.74585 85.3809 9.74585C83.5532 9.74585 81.7907 10.1105 80.1915 10.8066C77.8089 11.8342 75.7527 13.558 74.3166 15.7127C72.8806 17.8674 72.032 20.4862 72.032 23.2707C72.032 25.1271 72.391 26.9171 73.0764 28.5414C73.7292 30.0663 74.6104 31.4586 75.7201 32.6188L81.6275 30.1989C80.5505 29.6022 79.604 28.7403 78.9186 27.6795C78.07 26.4199 77.5804 24.895 77.5804 23.2707C77.5804 22.1768 77.8089 21.1492 78.2006 20.1878C78.788 18.7624 79.7672 17.5691 81.0074 16.7072C82.2477 15.8453 83.749 15.3481 85.3483 15.3481C86.4253 15.3481 87.4371 15.5801 88.3836 15.9779C89.787 16.5746 90.962 17.5691 91.8106 18.8287C92.0717 19.1934 92.2675 19.5912 92.4633 20.0221C92.8224 18.3315 93.5404 16.7403 94.4869 15.3149Z" fill="#468AF9"/>
<path d="M97.9139 23.0056L92.9529 25.0609C92.9203 25.2598 92.855 25.4255 92.8224 25.6244L98.6972 23.2045C98.6972 22.2763 98.5993 21.3482 98.4035 20.4531C98.0771 21.2487 97.9139 22.0774 97.9139 23.0056Z" fill="#468AF9"/>
<path d="M95.4333 21.9448L93.1487 23.3039L92.7897 25.5912L95.2702 24.4973L95.4333 21.9448Z" fill="white"/>
<path d="M98.7298 23.105C98.7625 22.0773 98.9583 21.116 99.35 20.221C99.9375 18.7956 100.917 17.6022 102.157 16.7403C103.397 15.8784 104.898 15.3812 106.498 15.3812C107.575 15.3812 108.587 15.6133 109.533 16.011C110.447 16.4088 111.263 16.9724 111.948 17.6354L117.366 15.4144C116.452 14.0884 115.31 12.9613 113.972 12.0663C111.85 10.6077 109.272 9.74585 106.53 9.74585C104.703 9.74585 102.94 10.1105 101.341 10.8066C98.9583 11.8342 96.9021 13.558 95.4661 15.7127C94.03 17.8674 93.1814 20.4862 93.1814 23.2707C93.1814 23.9668 93.2467 24.6298 93.3446 25.2928L98.7298 23.105Z" fill="white"/>
<path d="M95.4333 20.0221L93.6383 19.6243C93.6383 19.6243 93.0508 21.8121 92.8876 23.9668C92.7244 26.1215 92.8876 25.5248 92.8876 25.5248L95.4333 21.348V20.0221Z" fill="white"/>
<path d="M18.571 35.0718C17.1349 36.232 15.0135 36.7956 12.892 36.7956C7.34354 36.7956 4.17766 33.8122 4.17766 28.1437V15.779H0V10.9724H4.17766V5.10498H10.0851V10.9724H16.8412V15.779H10.0851V28.0111C10.0851 30.4972 11.3254 31.8564 13.5774 31.8564C14.8176 31.8564 15.9926 31.5249 16.9065 30.7956L18.571 35.0718Z" fill="white"/>
<path d="M47.5536 10.7734L35.706 38.5193C33.3887 44.3535 30.1575 46.1105 25.9472 46.1105C23.4341 46.1105 20.7904 45.2486 19.1912 43.7569L21.5737 39.348C22.7161 40.4419 24.3153 41.1381 25.9146 41.1381C28.0034 41.1381 29.2437 40.1436 30.3533 37.5911L30.7776 36.5966L19.746 10.7734H25.9146L33.8782 29.7679L41.8745 10.7734H47.5536Z" fill="white"/>
<path d="M46.9008 23.6354C46.9008 15.9448 52.5798 10.5083 60.5761 10.5083C65.5044 10.5083 69.4209 12.5635 71.3792 16.4752L66.8425 19.1602C65.3412 16.7072 63.0565 15.6133 60.5434 15.6133C56.2026 15.6133 52.8735 18.6961 52.8735 23.6354C52.8735 28.6409 56.2026 31.6575 60.5434 31.6575C63.0565 31.6575 65.3412 30.5635 66.8425 28.1105L71.3792 30.7956C69.4536 34.6409 65.5044 36.7956 60.5761 36.7956C52.5798 36.7956 46.9008 31.326 46.9008 23.6354Z" fill="white"/>
<path d="M158.882 10.0166V11.5746H165.866V16.3812H159.077V37.0994H153.137V16.3812H148.96V11.5414H153.137V9.91713C153.137 4.51381 156.303 1 162.211 1C164.267 1 166.258 1.43094 167.563 2.39226L165.899 6.9337C164.985 6.30387 163.843 5.87293 162.635 5.87293C160.154 5.87293 158.882 7.26519 158.882 10.0166Z" fill="#468AF9"/>
<path d="M185.971 37.0995L179.476 28.1824L172.916 37.0995H166.356L176.245 24.0387L166.78 11.3757H173.373L179.607 19.8288L185.84 11.3757H192.238L182.74 23.9724L192.662 37.1326H185.971V37.0995Z" fill="#468AF9"/>
<path d="M47 43.7105C47 42.3975 47.8926 41.491 49.093 41.491C50.2933 41.491 51.1859 42.3975 51.1859 43.7105C51.1859 45.0235 50.2933 45.93 49.093 45.93C47.8926 45.93 47 44.9922 47 43.7105ZM50.4472 43.7105C50.4472 42.7727 49.8624 42.1787 49.093 42.1787C48.3235 42.1787 47.7387 42.7727 47.7387 43.7105C47.7387 44.6483 48.3235 45.2423 49.093 45.2423C49.8624 45.2423 50.4472 44.6483 50.4472 43.7105Z" fill="white"/>
<path d="M59.804 43.3666V45.8675H59.0653V43.4604C59.0653 42.6164 58.6652 42.1787 57.9881 42.1787C57.2186 42.1787 56.7261 42.6789 56.7261 43.6167V45.8675H55.9874V41.491H56.6953V42.1475C57.0031 41.7098 57.4956 41.4597 58.142 41.4597C59.1269 41.491 59.804 42.0849 59.804 43.3666Z" fill="white"/>
<path d="M64.9441 39.7715H65.6828V45.8674H64.9441V39.7715Z" fill="white"/>
<path d="M70.7614 40.1779C70.7614 39.8966 70.9768 39.6465 71.2538 39.6465C71.5308 39.6465 71.7463 39.8653 71.7463 40.1467C71.7463 40.428 71.5308 40.6781 71.2538 40.6781C70.946 40.6781 70.7614 40.4593 70.7614 40.1779ZM70.8845 41.5221H71.6231V45.8987H70.8845V41.5221Z" fill="white"/>
<path d="M80.6105 43.3666V45.8675H79.8719V43.4604C79.8719 42.6164 79.4717 42.1787 78.7946 42.1787C78.0251 42.1787 77.5326 42.6789 77.5326 43.6167V45.8675H76.7939V41.491H77.5019V42.1475C77.8097 41.7098 78.3021 41.4597 78.9485 41.4597C79.9334 41.491 80.6105 42.0849 80.6105 43.3666Z" fill="white"/>
<path d="M89.4134 43.9606H86.1508C86.2431 44.7108 86.7972 45.2423 87.5974 45.2423C88.0591 45.2423 88.4592 45.0547 88.767 44.7109L89.1671 45.211C88.7978 45.6799 88.2438 45.93 87.5666 45.93C86.2739 45.93 85.4121 44.9922 85.4121 43.7105C85.4121 42.4288 86.2739 41.491 87.4435 41.491C88.6131 41.491 89.4441 42.3975 89.4441 43.7418C89.4134 43.8043 89.4134 43.8981 89.4134 43.9606ZM86.1508 43.3979H88.7362C88.6747 42.6789 88.1514 42.1474 87.4435 42.1474C86.7356 42.1474 86.2124 42.6476 86.1508 43.3979Z" fill="white"/>
<path d="M100.894 41.147V41.5221H102.063V42.1786H100.925V45.8987H100.186V42.1786H99.5088V41.5221H100.186V41.147C100.186 40.3029 100.648 39.7402 101.509 39.7402C101.817 39.7402 102.125 39.834 102.34 39.9903L102.125 40.5843C101.971 40.4592 101.786 40.3655 101.571 40.3655C101.109 40.3655 100.894 40.6468 100.894 41.147Z" fill="white"/>
<path d="M106.126 43.7105C106.126 42.3975 107.019 41.491 108.219 41.491C109.42 41.491 110.312 42.3975 110.312 43.7105C110.312 45.0235 109.42 45.93 108.219 45.93C107.019 45.93 106.126 44.9922 106.126 43.7105ZM109.573 43.7105C109.573 42.7727 108.989 42.1787 108.219 42.1787C107.45 42.1787 106.865 42.7727 106.865 43.7105C106.865 44.6483 107.45 45.2423 108.219 45.2423C108.989 45.2423 109.573 44.6483 109.573 43.7105Z" fill="white"/>
<path d="M117.299 41.491V42.2412C117.238 42.2412 117.176 42.2412 117.145 42.2412C116.376 42.2412 115.883 42.7727 115.883 43.7105V45.8988H115.145V41.5222H115.852V42.2412C116.068 41.7411 116.591 41.491 117.299 41.491Z" fill="white"/>
<path d="M125.579 43.9606H122.316C122.408 44.7108 122.962 45.2423 123.763 45.2423C124.224 45.2423 124.624 45.0547 124.932 44.7109L125.332 45.211C124.963 45.6799 124.409 45.93 123.732 45.93C122.439 45.93 121.577 44.9922 121.577 43.7105C121.577 42.4288 122.439 41.491 123.609 41.491C124.778 41.491 125.609 42.3975 125.609 43.7418C125.579 43.8043 125.579 43.8981 125.579 43.9606ZM122.285 43.3979H124.871C124.809 42.6789 124.286 42.1474 123.578 42.1474C122.901 42.1474 122.378 42.6476 122.285 43.3979Z" fill="white"/>
<path d="M132.842 45.8988L131.673 44.2419L130.503 45.8988H129.703L131.303 43.6792L129.795 41.5535H130.595L131.704 43.1165L132.812 41.5535H133.612L132.104 43.6792L133.704 45.8988H132.842Z" fill="white"/>
<path d="M146.385 45.6173C146.17 45.8361 145.831 45.9299 145.493 45.9299C144.692 45.9299 144.231 45.4297 144.231 44.5544V42.1473H143.553V41.4908H144.231V40.5217H144.969V41.4908H146.139V42.1473H144.939V44.5231C144.939 44.992 145.154 45.2421 145.554 45.2421C145.77 45.2421 145.985 45.1796 146.139 45.0233L146.385 45.6173Z" fill="white"/>
<path d="M153.218 41.491V42.2412C153.156 42.2412 153.095 42.2412 153.064 42.2412C152.295 42.2412 151.802 42.7727 151.802 43.7105V45.8988H151.063V41.5222H151.771V42.2412C152.018 41.7411 152.51 41.491 153.218 41.491Z" fill="white"/>
<path d="M161.097 43.2416V45.8675H160.42V45.3048C160.174 45.7112 159.743 45.93 159.097 45.93C158.173 45.93 157.619 45.3986 157.619 44.6483C157.619 43.9606 158.05 43.3666 159.251 43.3666H160.42V43.2103C160.42 42.5538 160.051 42.1475 159.343 42.1475C158.851 42.1475 158.389 42.335 158.081 42.6164L157.773 42.0224C158.204 41.6473 158.789 41.4597 159.435 41.4597C160.482 41.491 161.097 42.0537 161.097 43.2416ZM160.359 44.5546V43.9606H159.22C158.512 43.9606 158.297 44.2732 158.297 44.6483C158.297 45.086 158.635 45.3673 159.189 45.3673C159.743 45.3361 160.174 45.0547 160.359 44.5546Z" fill="white"/>
<path d="M170.054 39.7715V45.8674H169.346V45.1796C169.008 45.6798 168.515 45.9299 167.9 45.9299C166.73 45.9299 165.868 45.0233 165.868 43.7104C165.868 42.3974 166.73 41.4908 167.9 41.4908C168.484 41.4908 168.977 41.7097 169.315 42.1786V39.7715H170.054ZM169.346 43.7104C169.346 42.7725 168.761 42.1786 167.992 42.1786C167.222 42.1786 166.638 42.7725 166.638 43.7104C166.638 44.6482 167.222 45.2422 167.992 45.2422C168.761 45.2422 169.346 44.6482 169.346 43.7104Z" fill="white"/>
<path d="M175.133 40.1779C175.133 39.8966 175.348 39.6465 175.625 39.6465C175.902 39.6465 176.118 39.8653 176.118 40.1467C176.118 40.428 175.902 40.6781 175.625 40.6781C175.348 40.6781 175.133 40.4593 175.133 40.1779ZM175.256 41.5221H175.994V45.8987H175.256V41.5221Z" fill="white"/>
<path d="M184.982 43.3666V45.8675H184.243V43.4604C184.243 42.6164 183.843 42.1787 183.166 42.1787C182.396 42.1787 181.904 42.6789 181.904 43.6167V45.8675H181.165V41.491H181.873V42.1475C182.181 41.7098 182.673 41.4597 183.32 41.4597C184.305 41.491 184.982 42.0849 184.982 43.3666Z" fill="white"/>
<path d="M194 41.5222V45.3048C194 46.8366 193.292 47.5556 191.907 47.5556C191.168 47.5556 190.43 47.3368 189.999 46.8991L190.337 46.3052C190.707 46.649 191.291 46.8679 191.876 46.8679C192.83 46.8679 193.261 46.3989 193.261 45.3986V45.0547C192.923 45.4924 192.4 45.7425 191.815 45.7425C190.645 45.7425 189.783 44.8984 189.783 43.6167C189.783 42.3663 190.676 41.5222 191.815 41.5222C192.4 41.5222 192.954 41.7723 193.292 42.2412V41.5535H194V41.5222ZM193.292 43.5854C193.292 42.7414 192.707 42.1787 191.907 42.1787C191.107 42.1787 190.522 42.7414 190.522 43.5854C190.522 44.4295 191.107 45.0235 191.907 45.0235C192.738 45.0235 193.292 44.4295 193.292 43.5854Z" fill="white"/>
<path d="M133.359 15.779C134.044 15.4807 134.795 15.3481 135.578 15.3481C136.753 15.3481 137.765 15.6464 138.581 16.3094C139.364 16.9724 139.886 17.9337 140.18 19.1271C140.376 19.9227 140.474 20.8508 140.474 21.9116V36.3315H146.74V20.7845C146.74 19.1934 146.512 17.768 146.088 16.5414C145.631 15.2818 144.978 14.221 144.097 13.2928C143.215 12.3647 142.236 11.6685 141.159 11.2044C140.082 10.7403 138.875 10.5083 137.569 10.5083C136.264 10.5083 135.023 10.7735 133.881 11.3039C132.706 11.8343 131.596 12.663 130.552 13.7238L129.703 14.5856V10.9392H123.437V36.3315H129.703V22.1105C129.703 21.0497 129.834 20.0884 130.128 19.2265C130.421 18.3978 130.878 17.6685 131.466 17.0718C132.021 16.5083 132.673 16.0774 133.359 15.779Z" fill="white"/>
</svg>

<svg width="194" height="48" viewBox="0 0 194 48" fill="none" xmlns="http://www.w3.org/2000/svg"><path d="M118.019 16.541l-5.222 2.155c.032.066.098.133.13.2a7.876 7.876 0 011.338 4.408 8.106 8.106 0 01-.62 3.083 7.89 7.89 0 01-2.806 3.48 7.593 7.593 0 01-4.341 1.36 7.784 7.784 0 01-3.036-.63 7.829 7.829 0 01-3.427-2.851c-.195-.332-.391-.663-.554-.995a15.317 15.317 0 01-2.024 4.608c-.261.365-.522.73-.816 1.094a14.645 14.645 0 002.383 2.122 13.135 13.135 0 007.441 2.32c1.828 0 3.59-.364 5.189-1.06a13.542 13.542 0 005.875-4.907 13.636 13.636 0 002.285-7.558c0-1.856-.359-3.646-1.044-5.27-.229-.597-.457-1.094-.751-1.559z" fill="#468AF9"/><path d="M92.202 27.05a7.795 7.795 0 01-2.48 2.784 7.591 7.591 0 01-4.341 1.36 7.92 7.92 0 01-2.35-.365l-6.43 2.652c.425.364.849.729 1.306 1.027a13.135 13.135 0 007.441 2.32c1.828 0 3.59-.364 5.19-1.06a13.544 13.544 0 005.875-4.906 13.295 13.295 0 002.219-6.464l-6.43 2.652z" fill="#fff"/><path d="M94.487 15.315c.228-.365.49-.696.783-1.06-.718-.83-1.566-1.559-2.448-2.189a13.135 13.135 0 00-7.441-2.32c-1.828 0-3.59.364-5.19 1.06a13.544 13.544 0 00-5.874 4.907 13.636 13.636 0 00-2.285 7.558c0 1.856.359 3.646 1.044 5.27.653 1.525 1.534 2.918 2.644 4.078l5.907-2.42a7.635 7.635 0 01-2.708-2.52 7.879 7.879 0 01-1.339-4.408c0-1.094.229-2.122.62-3.083a7.894 7.894 0 012.807-3.48 7.59 7.59 0 014.341-1.36c1.077 0 2.09.232 3.036.63a7.825 7.825 0 013.427 2.85c.26.365.456.763.652 1.194.36-1.69 1.077-3.282 2.024-4.707zM97.914 23.006l-4.961 2.055c-.033.199-.098.364-.13.563l5.874-2.42c0-.928-.098-1.856-.294-2.75a6.579 6.579 0 00-.49 2.552z" fill="#468AF9"/><path d="M95.433 21.945l-2.284 1.359-.36 2.287 2.481-1.094.163-2.552z" fill="#fff"/><path d="M98.73 23.105c.032-1.028.228-1.989.62-2.884a7.896 7.896 0 012.807-3.48 7.589 7.589 0 014.341-1.36c1.077 0 2.089.232 3.035.63.914.398 1.73.961 2.415 1.624l5.418-2.22a12.645 12.645 0 00-3.394-3.349 13.137 13.137 0 00-7.442-2.32c-1.827 0-3.59.364-5.189 1.06a13.543 13.543 0 00-5.875 4.907 13.636 13.636 0 00-2.285 7.558c0 .696.066 1.359.164 2.022l5.385-2.188z" fill="#fff"/><path d="M95.433 20.022l-1.795-.398s-.587 2.188-.75 4.343c-.164 2.155 0 1.558 0 1.558l2.545-4.177v-1.326zM18.571 35.072c-1.436 1.16-3.558 1.724-5.679 1.724-5.548 0-8.714-2.984-8.714-8.652V15.779H0v-4.807h4.178V5.105h5.907v5.867h6.756v4.807h-6.756v12.232c0 2.486 1.24 3.845 3.492 3.845 1.24 0 2.416-.331 3.33-1.06l1.664 4.276zM47.554 10.773L35.706 38.52c-2.317 5.834-5.549 7.592-9.759 7.592-2.513 0-5.157-.862-6.756-2.354l2.383-4.409c1.142 1.094 2.741 1.79 4.34 1.79 2.09 0 3.33-.994 4.44-3.547l.424-.994-11.032-25.824h6.169l7.963 18.995 7.996-18.995h5.68zM46.9 23.635c0-7.69 5.68-13.127 13.676-13.127 4.928 0 8.845 2.056 10.803 5.967l-4.537 2.685c-1.5-2.453-3.785-3.547-6.299-3.547-4.34 0-7.67 3.083-7.67 8.022 0 5.006 3.33 8.022 7.67 8.022 2.514 0 4.798-1.093 6.3-3.547l4.536 2.686c-1.925 3.845-5.875 6-10.803 6-7.996 0-13.675-5.47-13.675-13.16z" fill="#fff"/><path d="M158.882 10.017v1.558h6.984v4.806h-6.789V37.1h-5.94V16.381h-4.177v-4.84h4.177V9.917c0-5.403 3.166-8.917 9.074-8.917 2.056 0 4.047.43 5.352 1.392l-1.664 4.542c-.914-.63-2.056-1.061-3.264-1.061-2.481 0-3.753 1.392-3.753 4.144zM185.971 37.1l-6.495-8.918-6.56 8.918h-6.56l9.889-13.061-9.465-12.663h6.593l6.234 8.453 6.233-8.453h6.398l-9.498 12.596 9.922 13.16h-6.691V37.1z" fill="#468AF9"/><path d="M47 43.71c0-1.313.893-2.219 2.093-2.219s2.093.907 2.093 2.22c0 1.313-.893 2.219-2.093 2.219S47 44.992 47 43.71zm3.447 0c0-.937-.585-1.531-1.354-1.531-.77 0-1.354.594-1.354 1.532 0 .937.585 1.531 1.354 1.531.77 0 1.354-.594 1.354-1.531zM59.804 43.367v2.5h-.739V43.46c0-.844-.4-1.281-1.077-1.281-.77 0-1.262.5-1.262 1.438v2.25h-.739v-4.376h.708v.657c.308-.438.8-.688 1.447-.688.985.031 1.662.625 1.662 1.907zM64.944 39.772h.739v6.095h-.739v-6.095zM70.761 40.178c0-.281.216-.531.493-.531a.49.49 0 01.492.5c0 .281-.215.531-.492.531-.308 0-.493-.219-.493-.5zm.124 1.344h.738V45.9h-.739v-4.377zM80.61 43.367v2.5h-.738V43.46c0-.844-.4-1.281-1.077-1.281-.77 0-1.262.5-1.262 1.438v2.25h-.74v-4.376h.709v.657c.308-.438.8-.688 1.447-.688.984.031 1.662.625 1.662 1.907zM89.413 43.96h-3.262c.092.75.646 1.282 1.446 1.282.462 0 .862-.187 1.17-.531l.4.5c-.37.469-.923.719-1.6.719-1.293 0-2.155-.938-2.155-2.22 0-1.281.862-2.219 2.031-2.219 1.17 0 2.001.907 2.001 2.25-.03.063-.03.157-.03.22zm-3.262-.562h2.585c-.061-.72-.585-1.25-1.293-1.25-.707 0-1.23.5-1.292 1.25zM100.894 41.147v.375h1.169v.657h-1.138v3.72h-.739v-3.72h-.677v-.657h.677v-.375c0-.844.462-1.407 1.323-1.407.308 0 .616.094.831.25l-.215.594a.878.878 0 00-.554-.219c-.462 0-.677.282-.677.782zM106.126 43.71c0-1.313.893-2.219 2.093-2.219 1.201 0 2.093.907 2.093 2.22 0 1.313-.892 2.219-2.093 2.219-1.2 0-2.093-.938-2.093-2.22zm3.447 0c0-.937-.584-1.531-1.354-1.531-.769 0-1.354.594-1.354 1.532 0 .937.585 1.531 1.354 1.531.77 0 1.354-.594 1.354-1.531zM117.299 41.491v.75h-.154c-.769 0-1.262.532-1.262 1.47v2.188h-.738v-4.377h.707v.72c.216-.5.739-.751 1.447-.751zM125.579 43.96h-3.263c.092.75.646 1.282 1.447 1.282.461 0 .861-.187 1.169-.531l.4.5c-.369.469-.923.719-1.6.719-1.293 0-2.155-.938-2.155-2.22 0-1.281.862-2.219 2.032-2.219 1.169 0 2 .907 2 2.25-.03.063-.03.157-.03.22zm-3.294-.562h2.586c-.062-.72-.585-1.25-1.293-1.25-.677 0-1.2.5-1.293 1.25zM132.842 45.899l-1.169-1.657-1.17 1.657h-.8l1.6-2.22-1.508-2.126h.8l1.109 1.564 1.108-1.563h.8l-1.508 2.125 1.6 2.22h-.862zM146.385 45.617c-.215.22-.554.313-.892.313-.801 0-1.262-.5-1.262-1.376v-2.407h-.678v-.656h.678v-.97h.738v.97h1.17v.656h-1.2v2.376c0 .469.215.72.615.72.216 0 .431-.063.585-.22l.246.594zM153.218 41.491v.75h-.154c-.769 0-1.262.532-1.262 1.47v2.188h-.739v-4.377h.708v.72c.247-.5.739-.751 1.447-.751zM161.097 43.242v2.626h-.677v-.563c-.246.406-.677.625-1.323.625-.924 0-1.478-.531-1.478-1.282 0-.687.431-1.281 1.632-1.281h1.169v-.157c0-.656-.369-1.063-1.077-1.063-.492 0-.954.188-1.262.47l-.308-.595c.431-.375 1.016-.562 1.662-.562 1.047.031 1.662.594 1.662 1.782zm-.738 1.313v-.594h-1.139c-.708 0-.923.312-.923.687 0 .438.338.72.892.72.554-.032.985-.313 1.17-.813zM170.054 39.772v6.095h-.708v-.687c-.338.5-.831.75-1.446.75-1.17 0-2.032-.907-2.032-2.22 0-1.313.862-2.22 2.032-2.22.584 0 1.077.22 1.415.689v-2.407h.739zm-.708 3.938c0-.938-.585-1.531-1.354-1.531-.77 0-1.354.593-1.354 1.531s.584 1.532 1.354 1.532c.769 0 1.354-.594 1.354-1.532zM175.133 40.178c0-.281.215-.531.492-.531a.49.49 0 01.493.5c0 .281-.216.531-.493.531a.49.49 0 01-.492-.5zm.123 1.344h.738V45.9h-.738v-4.377zM184.982 43.367v2.5h-.739V43.46c0-.844-.4-1.281-1.077-1.281-.77 0-1.262.5-1.262 1.438v2.25h-.739v-4.376h.708v.657c.308-.438.8-.688 1.447-.688.985.031 1.662.625 1.662 1.907zM194 41.522v3.783c0 1.532-.708 2.25-2.093 2.25-.739 0-1.477-.218-1.908-.656l.338-.594c.37.344.954.563 1.539.563.954 0 1.385-.47 1.385-1.47v-.343a1.798 1.798 0 01-1.446.688c-1.17 0-2.032-.845-2.032-2.126 0-1.25.893-2.095 2.032-2.095.585 0 1.139.25 1.477.72v-.688H194v-.032zm-.708 2.063c0-.844-.585-1.406-1.385-1.406s-1.385.562-1.385 1.406c0 .844.585 1.438 1.385 1.438.831 0 1.385-.594 1.385-1.438zM133.359 15.779c.685-.298 1.436-.43 2.219-.43 1.175 0 2.187.297 3.003.96.783.663 1.305 1.625 1.599 2.818.196.796.294 1.724.294 2.785v14.42h6.266V20.784c0-1.592-.228-3.017-.652-4.244a9.15 9.15 0 00-1.991-3.248c-.882-.928-1.861-1.624-2.938-2.089-1.077-.464-2.284-.696-3.59-.696a8.685 8.685 0 00-3.688.796c-1.175.53-2.285 1.359-3.329 2.42l-.849.862v-3.647h-6.266v25.392h6.266v-14.22c0-1.061.131-2.023.425-2.884a5.818 5.818 0 011.338-2.155 6.036 6.036 0 011.893-1.293z" fill="#fff"/></svg>
